X:209
M:C
L:1/8
K:G
d>cB>A G/G/G G:|2 D>CB,>A, G,/G,/G, G||
|:d|g>ab>g d/d/d d2|g>ab>g e/e/e e>f|g<be<g d<gB<g|A>GA>B G/G/G G:|
|:D|G>DG>D G>DG>B|d>Bg>B A/A/A AB/A/|G>EG>B G>D E/E/E|

